!!!OTL: Schlangenkoechin " Wo bist du gewesen, meine Tochter Marjaeh ?"
!!!ARE: Europa, Mitteleuropa, Lothringen, Hambach
!!!SCT: D0067A
!!!YEM: Copyright 1995, estate of Helmut Schaffrath.
**kern
*ICvox
*Ivox
*M3/4
*k[f#]
*G:
{8b
8cc
=1
4dd
4b
4dd
=2
8cc
8b
4a}
{8cc
8cc
=3
4b
4g
4b
=4
2a}
{4d
=5
4g
4g
8a
8a
=6
4b
4b}
{8b
8cc
=7
4dd
4b
4a
=8
2g}
==
!!!AGN: Ballade
!! In der zweiten Zeile rhythmisch korrigiert; Variante zu D0067
!!!ONB: ESAC (Essen Associative Code) Database: DVA
!!!AMT: simple triple
!!!AIN: vox
!!!EED: Helmut Schaffrath
!!!EEV: 1.0
*-
